X:5837
T:Gan Ainm
R:Slip Jig
S:
H:
N:
D:Irish Dancing Tape (P. Acc)
Z:Adrian Scahill
M:9/8
L:1/8
K:G
gfg edc BAG|Ace dec def|gfg edc BAG|1 ADd cBA G3:|2 ADd cBA GB/2c/2d||\
e^de Beb geB|d^cd Ada fdA|=cBc Gcg edc|B^de fed e2f|\
gfg Beb geB|d^cd Ada fdA|=cBc Gcg ecB|ABc def g3||


